X: 23728
T: Liten Karen
R: mazurka
M: 3/4
K: Dmajor
|:D>F A>^G A>B|A2 F2- F>E|D>F d>c d>e|d2 c4|
E>F G>F G>A|G2 E4|A>B c>d c>B|A2 F2- F>E|
D>F A>^G A>B|(3ABA F2 E2|D>F d>c d>e|d2 c2- c>e|
d>c B2- B>d|c>B A2- A>d|c>B A>G F>E|D2 D4:|
|:A>d f2 f2|A>d f2 f2|f2 (3efe d2|d2 c2- c>e|
d>c B2- B>d|c>B A2- A>^G|A>B c>d c>B|(3ABA F4|
A>d f2 f2|A>d f2 f2|f2 (3efe d2|d2 c2- c>e|
d>c B2- B>d|c>B A2- A>d|c>B A>G F>E|D2 D4:|

